assets/images/script/r-7-e3.svg

<svg fill="none" height="242" viewBox="0 0 149 242" width="149" xmlns="http://www.w3.org/2000/svg"><path d="m134.594 5.78179c-.451 3.6094-44.895.70563-48.0999.70563-26.4286 0-52.4686-3.41127-78.76396-3.41127-.66648 0-4.4806-.43335-4.81001.22547-1.65561 3.31122 22.21527 29.99978 23.94567 32.53648 19.197 28.1411 35.1844 58.3465 47.1231 90.2399 10.0883 26.95 18.6957 59.469 9.3946 87.933-4.0232 12.312-12.938 25.227-27.2066 24.727-12.9444-.455-19.8547-13.382-21.0439-24.877-2.5577-24.725 8.1436-52.269 17.8121-74.405 7.3492-16.826 21.8744-34.145 39.5551-43.1943 27.5068-14.0782 62.7088 23.9563 50.9998 48.5003-3.106 6.511-25.654 14.13-30.5 2.5-4.65-11.161 5-21.184 15.477-31.255" stroke="#000" stroke-linecap="round" stroke-width="5"/></svg>

<svg width="149" height="242" viewBox="0 0 149 242" fill="none" xmlns="http://www.w3.org/2000/svg">
<path d="M134.594 5.78179C134.143 9.39119 89.699 6.48742 86.4941 6.48742C60.0655 6.48742 34.0255 3.07615 7.73014 3.07615C7.06366 3.07615 3.24954 2.6428 2.92013 3.30162C1.26452 6.61284 25.1354 33.3014 26.8658 35.8381C46.0628 63.9792 62.0502 94.1846 73.9889 126.078C84.0772 153.028 92.6846 185.547 83.3835 214.011C79.3603 226.323 70.4455 239.238 56.1769 238.738C43.2325 238.283 36.3222 225.356 35.133 213.861C32.5753 189.136 43.2766 161.592 52.9451 139.456C60.2943 122.63 74.8195 105.311 92.5002 96.2617C120.007 82.1835 155.209 120.218 143.5 144.762C140.394 151.273 117.846 158.892 113 147.262C108.35 136.101 118 126.078 128.477 116.007" stroke="black" stroke-width="5" stroke-linecap="round"/>
</svg>
